svgs/ooniprobe.svg

<svg xmlns="http://www.w3.org/2000/svg" viewBox="0 0 192 192"><path d="m66.852 174.408-3.096-1.733 4.869-1.42c7.459-2.175 10.468-8.259 6.059-12.249-1.113-1.007-5.428-3.77-9.589-6.14-10.029-5.711-12.631-9.502-12.065-17.584.368-5.256.901-6.49 4.318-9.99 2.145-2.196 7.494-6.01 11.889-8.477 10.99-6.168 14.747-9.083 14.747-11.441 0-1.728-.734-1.455-5.24 1.956-12.741 9.643-27.659 9.703-40.218.161-5.928-4.504-8.893-10.069-9.447-17.732-.57-7.88 1.915-13.273 10.192-22.123l6.517-6.966 5.323.657c2.927.361 5.792 1.237 6.366 1.946.574.709 2.063 1.612 3.309 2.008 1.288.409 3.252 2.757 4.552 5.441 2.045 4.225 2.152 5.178 1.013 9.049-1.342 4.561-5.728 10.045-8.033 10.045-1.65 0-1.646.076-.213-4.035 3.216-9.224-7.017-15.518-13.662-8.404-6.262 6.703-6.228 14.238.093 20.293 2.688 2.576 4.118 3.055 10.135 3.395 8.752.494 15.271-1.206 19.027-4.962 6.101-6.1 5.305-12.525-2.717-21.941-7.712-9.052-10.209-15.783-9.622-25.932.734-12.683 7.366-22.796 18.986-28.954 4.623-2.449 6.35-2.755 15.595-2.755 9.363 0 10.943.288 15.891 2.894 21.046 11.086 25.626 35.185 10.196 53.653-4.779 5.72-6.281 11.134-4.718 17.008 2.582 9.705 11.273 16.087 20.493 15.047 6.039-.68 9.752-3.531 11.668-8.959 1.409-3.99 1.386-4.66-.26-7.527-.993-1.731-1.806-3.958-1.806-4.947 0-.99-1.403-2.837-3.116-4.104-1.714-1.267-4.289-4.513-5.721-7.213-1.433-2.7-3.642-6.212-4.91-7.803-1.933-2.426-2.101-3.221-1.037-4.924.697-1.117 1.268-3.384 1.268-5.037s.702-3.588 1.56-4.3c.857-.712 1.559-2.088 1.559-3.057 0-.97 1.504-3.72 3.342-6.111 2.399-3.122 4.099-4.348 6.03-4.348 1.478 0 3.215-.527 3.86-1.171 1.189-1.189 4.793-.672 7.478 1.073 1.18.767.508 2.037-3.346 6.323-8.116 9.027-8.182 17.96-.222 30.238 7.085 10.928 8.802 15.166 8.817 21.759.011 4.461-.669 6.908-3.09 11.129-3.528 6.151-8.535 9.56-18.062 12.293-9.88 2.836-21.192.027-28.459-7.067-3.99-3.894-4.419-4.086-4.419-1.98 0 3.712 2.649 6.831 12.443 14.652 11.664 9.314 15.628 15.041 15.628 22.578 0 4.693-.483 6.054-3.28 9.24-6.244 7.111-15.139 9.333-28.95 7.232-8.312-1.265-13.515-8.243-13.515-18.124 0-7.404 3.752-11.552 11.086-12.257 5.618-.54 9.707.896 9.707 3.407 0 1.037-1.121 1.523-3.511 1.523-1.932 0-4.09.697-4.797 1.548-1.978 2.383-.399 8.086 3.191 11.526 2.613 2.503 4.062 3.041 8.195 3.041 6.668 0 9.398-2.401 9.398-8.262 0-3.704-.613-4.888-4.418-8.528-2.431-2.325-7.122-5.986-10.426-8.135-4.781-3.109-10.082-8.412-13.994-14-.176-.251-1.051.586-1.944 1.861-3.511 5.012-13.077 11.47-19.213 12.969-11.657 2.848-10.626 15.258 1.268 15.258 3.491 0 5.347.534 6.318 1.819.755 1.001 2.302 2.333 3.437 2.961 4.73 2.616 4.526 18.376-.268 20.757-1.283.638-3.188 1.934-4.235 2.881-2.861 2.589-10.468 3.163-14.204 1.071ZM99.183 68.375c10.482-4.974 12.243-19.227 3.414-27.634-6.788-6.464-15.697-6.577-22.658-.288C71.364 48.2 72.17 61 81.638 67.434c4.619 3.139 12.07 3.539 17.545.941ZM86.116 57.13c-2.63-3.169 1.52-7.319 4.689-4.689 2.222 1.844 1.472 5.595-1.194 5.976-1.193.17-2.766-.409-3.495-1.287Z"/></svg>

<svg
    xmlns="http://www.w3.org/2000/svg"
    viewBox="0 0 192 192"
    id="vector">
    <path
        id="path"
        d="M 66.852 174.408 L 63.756 172.675 L 68.625 171.255 C 76.084 169.08 79.093 162.996 74.684 159.006 C 73.571 157.999 69.256 155.236 65.095 152.866 C 55.066 147.155 52.464 143.364 53.03 135.282 C 53.398 130.026 53.931 128.792 57.348 125.292 C 59.493 123.096 64.842 119.282 69.237 116.815 C 80.227 110.647 83.984 107.732 83.984 105.374 C 83.984 103.646 83.25 103.919 78.744 107.33 C 66.003 116.973 51.085 117.033 38.526 107.491 C 32.598 102.987 29.633 97.422 29.079 89.759 C 28.509 81.879 30.994 76.486 39.271 67.636 L 45.788 60.67 L 51.111 61.327 C 54.038 61.688 56.903 62.564 57.477 63.273 C 58.051 63.982 59.54 64.885 60.786 65.281 C 62.074 65.69 64.038 68.038 65.338 70.722 C 67.383 74.947 67.49 75.9 66.351 79.771 C 65.009 84.332 60.623 89.816 58.318 89.816 C 56.668 89.816 56.672 89.892 58.105 85.781 C 61.321 76.557 51.088 70.263 44.443 77.377 C 38.181 84.08 38.215 91.615 44.536 97.67 C 47.224 100.246 48.654 100.725 54.671 101.065 C 63.423 101.559 69.942 99.859 73.698 96.103 C 79.799 90.003 79.003 83.578 70.981 74.162 C 63.269 65.11 60.772 58.379 61.359 48.23 C 62.093 35.547 68.725 25.434 80.345 19.276 C 84.968 16.827 86.695 16.521 95.94 16.521 C 105.303 16.521 106.883 16.809 111.831 19.415 C 132.877 30.501 137.457 54.6 122.027 73.068 C 117.248 78.788 115.746 84.202 117.309 90.076 C 119.891 99.781 128.582 106.163 137.802 105.123 C 143.841 104.443 147.554 101.592 149.47 96.164 C 150.879 92.174 150.856 91.504 149.21 88.637 C 148.217 86.906 147.404 84.679 147.404 83.69 C 147.404 82.7 146.001 80.853 144.288 79.586 C 142.574 78.319 139.999 75.073 138.567 72.373 C 137.134 69.673 134.925 66.161 133.657 64.57 C 131.724 62.144 131.556 61.349 132.62 59.646 C 133.317 58.529 133.888 56.262 133.888 54.609 C 133.888 52.956 134.59 51.021 135.448 50.309 C 136.305 49.597 137.007 48.221 137.007 47.252 C 137.007 46.282 138.511 43.532 140.349 41.141 C 142.748 38.019 144.448 36.793 146.379 36.793 C 147.857 36.793 149.594 36.266 150.239 35.622 C 151.428 34.433 155.032 34.95 157.717 36.695 C 158.897 37.462 158.225 38.732 154.371 43.018 C 146.255 52.045 146.189 60.978 154.149 73.256 C 161.234 84.184 162.951 88.422 162.966 95.015 C 162.977 99.476 162.297 101.923 159.876 106.144 C 156.348 112.295 151.341 115.704 141.814 118.437 C 131.934 121.273 120.622 118.464 113.355 111.37 C 109.365 107.476 108.936 107.284 108.936 109.39 C 108.936 113.102 111.585 116.221 121.379 124.042 C 133.043 133.356 137.007 139.083 137.007 146.62 C 137.007 151.313 136.524 152.674 133.727 155.86 C 127.483 162.971 118.588 165.193 104.777 163.092 C 96.465 161.827 91.262 154.849 91.262 144.968 C 91.262 137.564 95.014 133.416 102.348 132.711 C 107.966 132.171 112.055 133.607 112.055 136.118 C 112.055 137.155 110.934 137.641 108.544 137.641 C 106.612 137.641 104.454 138.338 103.747 139.189 C 101.769 141.572 103.348 147.275 106.938 150.715 C 109.551 153.218 111 153.756 115.133 153.756 C 121.801 153.756 124.531 151.355 124.531 145.494 C 124.531 141.79 123.918 140.606 120.113 136.966 C 117.682 134.641 112.991 130.98 109.687 128.831 C 104.906 125.722 99.605 120.419 95.693 114.831 C 95.517 114.58 94.642 115.417 93.749 116.692 C 90.238 121.704 80.672 128.162 74.536 129.661 C 62.879 132.509 63.91 144.919 75.804 144.919 C 79.295 144.919 81.151 145.453 82.122 146.738 C 82.877 147.739 84.424 149.071 85.559 149.699 C 90.289 152.315 90.085 168.075 85.291 170.456 C 84.008 171.094 82.103 172.39 81.056 173.337 C 78.195 175.926 70.588 176.5 66.852 174.408 Z M 99.183 68.375 C 109.665 63.401 111.426 49.148 102.597 40.741 C 95.809 34.277 86.9 34.164 79.939 40.453 C 71.364 48.2 72.17 61 81.638 67.434 C 86.257 70.573 93.708 70.973 99.183 68.375 Z M 86.116 57.13 C 83.486 53.961 87.636 49.811 90.805 52.441 C 93.027 54.285 92.277 58.036 89.611 58.417 C 88.418 58.587 86.845 58.008 86.116 57.13 Z"
        fill="#000000"
        stroke-width="12"/>
</svg>
